icons/fiscal-host-16.svg

<svg width="16" height="16" viewBox="0 0 16 16" fill="none" xmlns="http://www.w3.org/2000/svg">
<path d="M10 8C10.5523 8 11 7.55228 11 7C11 6.44772 10.5523 6 10 6C9.44771 6 9 6.44772 9 7C9 7.55228 9.44771 8 10 8Z" fill="black"/>
<path fill-rule="evenodd" clip-rule="evenodd" d="M4 9.25V10.5C4 11.0523 4.44772 11.5 5 11.5H12.5C13.0523 11.5 13.5 11.0523 13.5 10.5V3.5C13.5 2.94772 13.0523 2.5 12.5 2.5H5C4.44772 2.5 4 2.94772 4 3.5V4.75H3.25C2.83579 4.75 2.5 5.08579 2.5 5.5C2.5 5.91421 2.83579 6.25 3.25 6.25H4V7.75H3.25C2.83579 7.75 2.5 8.08579 2.5 8.5C2.5 8.91421 2.83579 9.25 3.25 9.25H4ZM5.5 4V4.79268C5.7913 4.89564 6 5.17345 6 5.5C6 5.82655 5.7913 6.10436 5.5 6.20732V7.79268C5.7913 7.89564 6 8.17345 6 8.5C6 8.82655 5.7913 9.10436 5.5 9.20732V10H12V4H5.5Z" fill="black"/>
<path fill-rule="evenodd" clip-rule="evenodd" d="M12.75 14.25V14H3.25V14.25C3.25 14.6642 2.91421 15 2.5 15C2.08579 15 1.75 14.6642 1.75 14.25V14C0.783502 14 0 13.2165 0 12.25V1.75C0 0.783502 0.783502 0 1.75 0H14.25C15.2165 0 16 0.783502 16 1.75V12.25C16 13.2165 15.2165 14 14.25 14V14.25C14.25 14.6642 13.9142 15 13.5 15C13.0858 15 12.75 14.6642 12.75 14.25ZM1.75 1.5C1.61193 1.5 1.5 1.61193 1.5 1.75V12.25C1.5 12.3881 1.61193 12.5 1.75 12.5H14.25C14.3881 12.5 14.5 12.3881 14.5 12.25V1.75C14.5 1.61193 14.3881 1.5 14.25 1.5H1.75Z" fill="black"/>
</svg>

<svg xmlns="http://www.w3.org/2000/svg" width="16" height="16" viewBox="0 0 16 16"><path d="M10 8a1 1 0 1 0 0-2 1 1 0 0 0 0 2Z"/><path d="M4 9.25h-.75a.75.75 0 0 1 0-1.5H4v-1.5h-.75a.75.75 0 0 1 0-1.5H4V3.5a1 1 0 0 1 1-1h7.5a1 1 0 0 1 1 1v7a1 1 0 0 1-1 1H5a1 1 0 0 1-1-1ZM5.5 4v.793a.75.75 0 0 1 0 1.414v1.586a.75.75 0 0 1 0 1.414V10H12V4Z"/><path d="M12.75 14.25V14h-9.5v.25a.75.75 0 0 1-1.5 0V14A1.75 1.75 0 0 1 0 12.25V1.75C0 .784.784 0 1.75 0h12.5C15.217 0 16 .784 16 1.75v10.5A1.75 1.75 0 0 1 14.25 14v.25a.75.75 0 0 1-1.5 0ZM1.75 1.5a.25.25 0 0 0-.25.25v10.5c0 .138.112.25.25.25h12.5a.25.25 0 0 0 .25-.25V1.75a.25.25 0 0 0-.25-.25Z"/></svg>
